svgs/regular/plane-prop.svg

<svg xmlns="http://www.w3.org/2000/svg" viewBox="0 0 576 512"><!--! Font Awesome Pro 6.3.0 by @fontawesome - https://fontawesome.com License - https://fontawesome.com/license (Commercial License) Copyright 2023 Fonticons, Inc. --><path d="M267.3 176h49.5L299.1 48H284.9L267.3 176zM344.7 27.6l5 36.4c.7-.1 1.5-.1 2.2-.1h16V48c0-8.8 7.2-16 16-16s16 7.2 16 16V80c8.8 0 16 7.2 16 16s-7.2 16-16 16v32c0 8.8-7.2 16-16 16s-16-7.2-16-16V128h-9.4l6.6 48h93.1c21 0 48.1 6.2 70.4 17.4C549.4 203.8 576 223.9 576 256c0 32.5-26.4 52.6-47.4 63c-22.5 11.1-49.5 17-70.3 17H365.2l-6.6 48H368V368c0-8.8 7.2-16 16-16s16 7.2 16 16v32c8.8 0 16 7.2 16 16s-7.2 16-16 16v32c0 8.8-7.2 16-16 16s-16-7.2-16-16V448H352c-.8 0-1.5 0-2.2-.1l-5 36.4C342.5 500.2 329 512 313 512H271c-16 0-29.5-11.8-31.7-27.6l-5-36.4H224c-17.7 0-32-14.3-32-32s14.3-32 32-32h1.4l-7.2-52.4-75.7-9.1-5.8 34.3C134.3 372.4 120.8 384 105 384H71c-15.9 0-29.4-11.7-31.7-27.4L28.7 287.8C12.6 286.2 0 272.5 0 256s12.6-30.2 28.7-31.8l10.7-68.7C41.6 139.7 55.1 128 71 128h34c15.8 0 29.3 11.6 31.6 27.2l5.8 34.3 75.7-9.1 7.2-52.4H224c-17.7 0-32-14.3-32-32s14.3-32 32-32h10.3l5-36.4C241.5 11.8 255 0 271 0H313c16 0 29.5 11.8 31.7 27.6zM267.3 336l17.7 128h14.2l17.7-128H267.3zm191.1-48c13.4 0 33.1-4.1 49-12c17.4-8.6 20.7-16.5 20.7-20c0-2.9-3.2-10.8-20.8-19.7c-15.9-8-35.7-12.3-48.9-12.3H257.4L125.5 239.8c-12.7 1.5-24.4-7.2-26.5-19.8l-7.5-44H84.7L72.3 256l12.4 80h6.8L99 292c2.2-12.6 13.8-21.3 26.5-19.8L257.4 288H458.3z"/></svg>

<svg xmlns="http://www.w3.org/2000/svg" viewBox="0 0 576 512"><!--! Font Awesome Pro 6.2.0 by @fontawesome - https://fontawesome.com License - https://fontawesome.com/license (Commercial License) Copyright 2022 Fonticons, Inc. --><path d="M344.7 27.63L349.8 64.08C350.5 64.03 351.2 64 352 64H368V48C368 39.16 375.2 32 384 32C392.8 32 400 39.16 400 48V80C408.8 80 416 87.16 416 96C416 104.8 408.8 112 400 112V144C400 152.8 392.8 160 384 160C375.2 160 368 152.8 368 144V128H358.6L365.2 176H458.3C479.3 176 506.4 182.2 528.7 193.4C549.4 203.8 576 223.9 576 256C576 288.5 549.6 308.6 528.6 319C506.2 330.1 479.1 336 458.3 336H365.2L358.6 384H368V368C368 359.2 375.2 352 384 352C392.8 352 400 359.2 400 368V400C408.8 400 416 407.2 416 416C416 424.8 408.8 432 400 432V464C400 472.8 392.8 480 384 480C375.2 480 368 472.8 368 464V448H352C351.2 448 350.5 447.1 349.8 447.9L344.7 484.4C342.5 500.2 329 512 313 512H270.1C254.1 512 241.5 500.2 239.3 484.4L234.3 448H224C206.3 448 192 433.7 192 416C192 398.3 206.3 384 224 384H225.4L218.2 331.6L142.5 322.6L136.6 356.8C134.3 372.4 120.8 384 104.1 384H71C55.08 384 41.6 372.3 39.33 356.6L28.66 287.8C12.55 286.2 0 272.5 0 256C0 239.5 12.55 225.8 28.66 224.2L39.33 155.4C41.6 139.7 55.08 128 71 128H104.1C120.8 128 134.3 139.6 136.6 155.2L142.5 189.5L218.2 180.4L225.4 128H224C206.3 128 192 113.7 192 96C192 78.33 206.3 64 224 64H234.3L239.3 27.63C241.5 11.79 254.1 0 270.1 0H313C329 0 342.5 11.79 344.7 27.63L344.7 27.63zM316.7 176L299.1 48H284.9L267.3 176H316.7zM284.9 464H299.1L316.7 336H267.3L284.9 464zM507.3 276C524.7 267.4 528 259.5 528 256C528 253.1 524.8 245.2 507.2 236.3C491.2 228.3 471.5 224 458.3 224H257.4L102.9 242.6L91.49 176H84.71L72.29 256L84.71 336H91.49L102.9 269.5L257.4 288H458.3C471.7 288 491.5 283.9 507.3 276z"/></svg>
